X: 1
T: Sk\"ankl\aat, "Sk\aalarna"
C: Trad. efter Byss-Kalle
B: #9 in 57 L\aatar efter Byss-Kalle
R: skanklat, march
S: http://www.nyckelharpa.org/archive/written-music/american-allspel-list/ 2022/9/28
Z: 2022 John Chambers <jc:trillian.mit.edu>
M: 2/4
L: 1/16
Q: 1/4=60
K: G
"^A"\
|: G2d2  d2d2  | cBcd    c2Ac  | B2B2    (dB)GB | A2D2 [1 D4 :|2 (DG)FG \
"^B"\
[| A2A2 (AB)GB | A2D2   (DE)FG | A2A2    (AB)GB |  A2D2 A2Ac ||
| (BA)GF  G2Ac | BAGF    G2A2  | (BG)dG  (BA)dF |  G4   HG4 \
"^C"\
|: _B2d2  d2Bd | (dc)cc (ec)Ac | (c_B)BB (Bd)cB | _B2AB [1 A4 :|[2 (AG)F"^->B"G |]
